X:1
T:Title
%%score { ( 1 4 ) | ( 2 3 ) }
L:1/8
M:4/4
K:G
V:1 treble nm="Grand Piano"
V:4 treble 
V:2 bass 
V:3 bass 
V:1
 z4 z2[Q:1/4=106] D>D | GG G2 GF E>F | G2 G2 G2 Bc | d2 d2 d2 B>G | [FA]2 [FA]2 [FA]2 D2 | %5
 G2 G2 G>F E>F | G2 G2 G2 Bc | d2 B2 G2 B2 |[M:7/8] [FA]- [FA]3 G3 |[M:1/4] B>c |[M:4/4] d6 z2 | %11
 [Bd]6 z2 | A6 z2 | [GB]6 z2 | d6 z2 | [Bd]6 z2 | A2 [DG]2 [Dc]2 [DB]2 | %17
[M:7/8] [CDA]- [CDA]3 [B,DG]3 |] %18
V:2
 z4 z2 [G,B,]>[G,B,] | [G,B,D][G,B,D] [G,B,D]2 [D,A,C]2 [D,A,C]>[D,A,C] | z4[K:treble] z2 [G,G]2 | %3
 z4 z2 [DG]2 | [D,D]2 [D,D]2 [D,D]2 [D,F,]2 | [G,B,D]2 [G,B,D]2 [D,A,C]2 [D,A,C]2 | %6
 z4[K:treble] z2 [G,G]2 | [G,B,G]2 [G,DG]2 [G,B,D]2 [G,DG]2 | %8
[M:7/8][K:bass] [D,C]- [D,C]3 [G,B,]3 |[M:1/4][K:treble] G>A |[M:4/4] B6[K:bass] z2 | %11
 [G,D]2 G,>G, G,2 z z/[K:treble] G/ | F6[K:bass] z2 | G,2 G,>G, G,2[K:treble] G>A | B6[K:bass] z2 | %15
 [G,D]2 G,>G, G,2 [G,D]2 | [D,F,D]2 [B,,G,]2 [A,,F,]2 [G,,G,]2 |[M:7/8] D,- D,3 G,,3 |] %18
V:3
 x8 | x8 | [G,B,]2[K:treble] [G,CE]2 [G,B,D]2 z A, | [G,B,G]2 [G,B,G]2 [G,B,G]2 G,->[G,B,] | x8 | %5
 x8 | [G,B,]2[K:treble] [G,CE]2 [G,B,D]2 z A, | x8 |[M:7/8][K:bass] x7 |[M:1/4][K:treble] x2 | %10
[M:4/4] z2 G,>G,[K:bass] G,>[G,D] [G,D]>[G,D] | x15/2[K:treble] x/ | z2[K:bass] D,>D, D,>D, D,>D, | %13
 x6[K:treble] x2 | z2 G,>G,[K:bass] G,>[G,D] [G,D]>[G,D] | x8 | x8 |[M:7/8] x7 |] %18
V:4
 x8 | x8 | x8 | x8 | x8 | x8 | x8 | x8 |[M:7/8] x7 |[M:1/4] x2 |[M:4/4] z2 D>D D>[ce] [GB]>[ce] | %11
 z2 D>D D2 G>B | z2 D>D D>[DFA] [DBd]>[DFA] | D2 D>D D2 B>c | z2 D>D D>[ce] [GB]>[ce] | %15
 z2 D>D D2 B2 | x8 |[M:7/8] x7 |] %18

